img/cab__balance-icon_print.svg

<svg width="24" height="24" viewBox="0 0 24 24" fill="none" xmlns="http://www.w3.org/2000/svg">
<path d="M20.4844 6.04688H19.8281V3.51562C19.8281 1.57711 18.251 0 16.3125 0H7.6875C5.74898 0 4.17188 1.57711 4.17188 3.51562V6.04688H3.51562C1.57711 6.04688 0 7.62398 0 9.5625V15.1875C0 17.126 1.57711 18.7031 3.51562 18.7031H4.17188V21.8906C4.17188 23.0537 5.11814 24 6.28125 24H17.7188C18.8819 24 19.8281 23.0537 19.8281 21.8906V18.7031H20.4844C22.4229 18.7031 24 17.126 24 15.1875V9.5625C24 7.62398 22.4229 6.04688 20.4844 6.04688ZM5.57812 3.51562C5.57812 2.35252 6.52439 1.40625 7.6875 1.40625H16.3125C17.4756 1.40625 18.4219 2.35252 18.4219 3.51562V6.04688H5.57812V3.51562ZM18.4219 21.8906C18.4219 22.2783 18.1065 22.5938 17.7188 22.5938H6.28125C5.89355 22.5938 5.57812 22.2783 5.57812 21.8906V14.9531H18.4219V21.8906ZM22.5938 15.1875C22.5938 16.3506 21.6475 17.2969 20.4844 17.2969H19.8281V14.9531H20.25C20.6383 14.9531 20.9531 14.6383 20.9531 14.25C20.9531 13.8617 20.6383 13.5469 20.25 13.5469H3.75C3.36169 13.5469 3.04688 13.8617 3.04688 14.25C3.04688 14.6383 3.36169 14.9531 3.75 14.9531H4.17188V17.2969H3.51562C2.35252 17.2969 1.40625 16.3506 1.40625 15.1875V9.5625C1.40625 8.39939 2.35252 7.45312 3.51562 7.45312H20.4844C21.6475 7.45312 22.5938 8.39939 22.5938 9.5625V15.1875Z" fill="#999999"/>
<path d="M13.875 16.5469H10.125C9.73669 16.5469 9.42188 16.8617 9.42188 17.25C9.42188 17.6383 9.73669 17.9531 10.125 17.9531H13.875C14.2633 17.9531 14.5781 17.6383 14.5781 17.25C14.5781 16.8617 14.2633 16.5469 13.875 16.5469Z" fill="#999999"/>
<path d="M13.875 19.5469H10.125C9.73669 19.5469 9.42188 19.8617 9.42188 20.25C9.42188 20.6383 9.73669 20.9531 10.125 20.9531H13.875C14.2633 20.9531 14.5781 20.6383 14.5781 20.25C14.5781 19.8617 14.2633 19.5469 13.875 19.5469Z" fill="#999999"/>
<path d="M6 9.04688H3.75C3.36169 9.04688 3.04688 9.36169 3.04688 9.75C3.04688 10.1383 3.36169 10.4531 3.75 10.4531H6C6.38831 10.4531 6.70312 10.1383 6.70312 9.75C6.70312 9.36169 6.38831 9.04688 6 9.04688Z" fill="#999999"/>
</svg>

<svg width="24" height="24" fill="none" xmlns="http://www.w3.org/2000/svg"><path d="M20.484 6.047h-.656V3.516A3.52 3.52 0 0016.313 0H7.688a3.52 3.52 0 00-3.516 3.516v2.53h-.656A3.52 3.52 0 000 9.563v5.626a3.52 3.52 0 003.516 3.515h.656v3.188c0 1.163.946 2.109 2.11 2.109h11.437c1.163 0 2.11-.946 2.11-2.11v-3.187h.655A3.52 3.52 0 0024 15.188V9.561a3.52 3.52 0 00-3.516-3.515zM5.578 3.516c0-1.163.946-2.11 2.11-2.11h8.625c1.163 0 2.109.947 2.109 2.11v2.53H5.578v-2.53zM18.422 21.89a.704.704 0 01-.703.703H6.28a.704.704 0 01-.703-.703v-6.938h12.844v6.938zm4.172-6.703a2.112 2.112 0 01-2.11 2.109h-.656v-2.344h.422a.703.703 0 000-1.406H3.75a.703.703 0 000 1.406h.422v2.344h-.656a2.112 2.112 0 01-2.11-2.11V9.564c0-1.164.947-2.11 2.11-2.11h16.968c1.163 0 2.11.946 2.11 2.11v5.624z" fill="#999"/><path d="M13.875 16.547h-3.75a.703.703 0 000 1.406h3.75a.703.703 0 000-1.406zm0 3h-3.75a.703.703 0 000 1.406h3.75a.703.703 0 000-1.406zM6 9.047H3.75a.703.703 0 000 1.406H6a.703.703 0 000-1.406z" fill="#999"/></svg>
